X:1
T:Espagnoletta
C:Michael Praetorius
O:Duns Tew
L:1/8
M:6/8
K:G
|:E|G3/2F/2G A3/2G/2A|B3G3/2A/2B|c2B A3/2G/2A|B3G2:|
|:B|G3/2A/2B G3/2A/2B|A3A2A|1B3/2A/2G A G2|F3-F2:|2B3/2A/2G AF2|E3-E2|]
|:e|e3/2d/2c B2e|e3/2d/2c B2B|B3/2A/2G F3/2E/2F|E3E2:|
